X:1
T: Charlie
C:
R:Reel
Q: 232
K:A
M:4/4
L:1/8
|:E2|AB cd e2 ca|ec af ec Bc|AB cd e2 cA|Ec Bc A2 E2|
AB cd e2 ca|ec af ec Bc|AB cd e2 cA|Ec Bc A2 e2|
ab ag f2 ga|bf bf ag fe|ab ag fe dc|dc BA B2 e2|
ab ag f2 ga|bf bf ag fe|ag fe dc BA|Ec Bc A2:|
